X:1
T:[ID 1-105]
T:[ID 1-105]
T:Bezeichnung standardisiert: Tantz Tantz ex C.#
T:Urheber unbekannt Datum in der hier transkribierten schriftlichen Quelle: vermutlich vor 1767
C:Urheber unbekannt
C:Datum in der hier transkribierten schriftlichen Quelle: vermutlich vor 1767
L:1/8
M:2/4
K:C
V:1 treble 
V:1
 cc/d/ cG | cc/d/ cG | dc BA | G2 F2 | EGDG | EG Dc | defg | ed/e/ c2 :: ee/f/ ef | e/d/e/f/ eg | %10
 fe dc | BA/B/ G/A/B/c/ | df df | df dc | BA/G/ AG/"^[sic]"F/ | G2 G,2 | gg/a/ gd | gg/a/ gd | %18
 AB cd | BA/B/ GA/B/ | cd cd | cd cF | E/D/E/F/ GE | C2 C2 :| %24

